X: 3137
T: The GORDON HIGHLANDERS
Q: "Strathspey."
R: Strathspey.
%R: strathspey
B: James Kerr "Merry Melodies" v.3 p.16 #137
Z: 2016 John Chambers <jc:trillian.mit.edu>
M: C
L: 1/8
K: C
[|\
vC2-C>E G<G c>A | G>Ac>d e<c c<e |\
C2-C>E G<G c>e | (3fed (3edc B<d d<e |\
C2-C>E G<G c>A | G>Ac>d e<c c<e |
f<a d<f e<g c<e | d>e f/e/d/c/ B<d d<e |]\
g>ag>e g<c c>e | g>ag>e (3efg (3fga |\
g>ag>e g<c c>e |
(3fed (3edc B<d d>e |\
g>ag>e g<c c>e | g>ag>e (3efg (3fga |\
(3gfe (3fed (3edc G>c | d>e f/e/d/c/ B<d d<e |]

%%sep 1 1 500
%%sep 1 1 500

